src/static/assets/images/twitter.svg

<!--?xml version="1.0" encoding="UTF-8"?-->
<svg width="22px" height="18px" viewBox="0 0 22 18" version="1.1" xmlns="http://www.w3.org/2000/svg" xmlns:xlink="http://www.w3.org/1999/xlink">
    <!-- Generator: Sketch 40.3 (33839) - http://www.bohemiancoding.com/sketch -->
    <title>twitter-ico</title>
    <desc>Created with Sketch.</desc>
    <defs></defs>
    <g id="Symbols" stroke="none" stroke-width="1" fill="none" fill-rule="evenodd">
        <g id="Footer-1" transform="translate(-1453.000000, -379.000000)" fill="#69ACE0">
            <g id="Footer">
                <g id="Group-14" transform="translate(1409.000000, 377.000000)">
                    <g id="twitter-ico" transform="translate(44.000000, 2.000000)">
                        <path d="M22,2.3010345 C21.1905696,2.6534835 20.3207171,2.8917405 19.4076346,2.998836 C20.3395729,2.4504075 21.0552512,1.5819345 21.3922225,0.54711 C20.5201608,1.0549575 19.5541958,1.4237595 18.5260625,1.62252 C17.7027308,0.76122 16.5296817,0.223056 15.2315396,0.223056 C12.7387333,0.223056 10.7178408,2.2072095 10.7178408,4.654458 C10.7178408,5.0018175 10.7577617,5.339988 10.8346929,5.664357 C7.08350958,5.4795645 3.75770542,3.7153125 1.53154375,1.0342035 C1.14302375,1.688724 0.920470833,2.449944 0.920470833,3.2620905 C0.920470833,4.799511 1.71732,6.155919 2.92839708,6.9506325 C2.18852333,6.927642 1.49256708,6.728265 0.88400125,6.396336 C0.883685,6.4148535 0.88361625,6.4333755 0.88361625,6.452046 C0.88361625,8.599194 2.43943792,10.390302 4.50426625,10.797381 C4.12549042,10.898604 3.726745,10.952775 3.31512042,10.952775 C3.02427125,10.952775 2.74152083,10.9249965 2.46592042,10.8733005 C3.04029917,12.6338535 4.707175,13.9151115 6.68226167,13.9509135 C5.13751333,15.1394355 3.1913475,15.847884 1.07669833,15.847884 C0.71237375,15.8478795 0.353081667,15.826896 0,15.786 C1.99748083,17.043336 4.36996542,17.7769395 6.91887625,17.7769395 C15.2210071,17.7769395 19.7608721,11.02437 19.7608721,5.1683175 C19.7608721,4.9761945 19.7564767,4.7850795 19.7478279,4.5950445 C20.6296337,3.970233 21.3948992,3.189717 22,2.3010345 L22,2.3010345 Z" id="Shape"></path>
                    </g>
                </g>
            </g>
        </g>
    </g>
</svg>

<svg width="22" height="18" viewBox="0 0 22 18" xmlns="http://www.w3.org/2000/svg">
    <path d="M22 2.301c-.81.352-1.68.59-2.592.698A4.46 4.46 0 0 0 21.392.547a9.139 9.139 0 0 1-2.866 1.076 4.547 4.547 0 0 0-3.294-1.4c-2.493 0-4.514 1.984-4.514 4.431 0 .348.04.686.117 1.01a12.894 12.894 0 0 1-9.303-4.63A4.35 4.35 0 0 0 .92 3.262a4.41 4.41 0 0 0 2.008 3.689 4.559 4.559 0 0 1-2.044-.555v.056c0 2.147 1.555 3.938 3.62 4.345a4.601 4.601 0 0 1-2.038.076c.574 1.76 2.241 3.042 4.216 3.078a9.163 9.163 0 0 1-5.605 1.897c-.365 0-.724-.021-1.077-.062a12.948 12.948 0 0 0 6.919 1.99c8.302 0 12.842-6.752 12.842-12.608 0-.192-.005-.383-.013-.573A9.082 9.082 0 0 0 22 2.301z" fill="#69ACE0" fill-rule="evenodd"/>
</svg>
